svgs/sharp-light/window-flip.svg

<svg xmlns="http://www.w3.org/2000/svg" viewBox="0 0 512 512"><!--! Font Awesome Pro 6.6.0 by @fontawesome - https://fontawesome.com License - https://fontawesome.com/license (Commercial License) Copyright 2024 Fonticons, Inc. --><path d="M480 64l0 384L32 448 32 64l448 0zm32-32l-32 0L32 32 0 32 0 64 0 448l0 32 32 0 448 0 32 0 0-32 0-384 0-32zM392 104l0 48 48 0 0-48-48 0zm-48 0l-48 0 0 48 48 0 0-48zm-144 0l0 48 48 0 0-48-48 0z"/></svg>

<svg xmlns="http://www.w3.org/2000/svg" viewBox="0 0 512 512"><!--! Font Awesome Pro 6.5.2 by @fontawesome - https://fontawesome.com License - https://fontawesome.com/license (Commercial License) Copyright 2024 Fonticons, Inc. --><path d="M480 64V448H32V64H480zm32-32H480 32 0V64 448v32H32 480h32V448 64 32zM392 104v48h48V104H392zm-48 0H296v48h48V104zm-144 0v48h48V104H200z"/></svg>
